**kern	**silbe
*ICvox	*
=1	=1
*D:	*
*M4/4	*
*clefF4	*
1r	.
=2	=2
1r	.
=3	=3
1r	.
=4	=4
1r	.
=5	=5
1r	.
=6	=6
1r	.
=7	=7
1r	.
=8	=8
1r	.
=9	=9
4r	.
8r	.
8D	I
8F#	walk
4G	a-
[8A	-long
=10	=10
8A]	_
4F#	the
[8A	ci
8A]	_
4B	ty
[8c	streets
=11	=11
8c]	_
4c	you
[8B	used
8B]	_
4A	to
[8G	walk
=12	=12
8G]	_
4A	a-
[8G	-long
8G]	_
4F#	with
[8E	me
=13	=13
4E]	_
4r	.
2r	.
=14	=14
4r	.
8r	.
8D	And
8F#	ev-
4G	-'ry
[8A	step
=15	=15
8A]	_
4F#	I
[8A	take
8A]	_
4B	re-
[8c	-minds
=16	=16
8c]	_
4c	me
[8B	of
8B]	_
4A	just
[8G	how
=17	=17
4G]	_
8r	.
8D	we
4G	used
8A	to
8Bq	_
[8c	be
=18	=18
8c]	_
8B	_
8r	.
8G	Oh,
4B	how
4c#	can
=19	=19
2d	I
4r	.
8r	.
8c#	for-
=20	=20
8dq	_
4e	-get
4d	you,
2A	girl?
=21	=21
4r	_
8r	.
8A	When
4d	there
4e	is
=22	=22
4f#	al-
4f#	-ways
4g	some-
8f#	-thing
[8e	there
=23	=23
8e]	_
4f#	to
8g	re-
8eq	_
4f#	-mind
8e	me?
[8d	_
=24	=24
4d]	_
4r	_
2r	.
=25	=25
1r	.
=26	=26
4f#	Al-
4f#	-ways
4g	some-
8a	-thing
8f#q	_
[8e	there
=27	=27
4e]	_
8d	to
8B	re-
8e#q	_
4f#	-mind
8e#q	_
[4f#	me!
=28	=28
4.f#]	_
8r	_
4r	.
=29	=29
1r	.
=30	=30
1r	.
=31	=31
4r	.
8r	.
8D	As
8F#	sha-
4G	-dows
[8A	fall,
=32	=32
4A]	_
8F#	I
[8A	pass
8A]	_
4B	a
[8c	small
=33	=33
8c]	_
4c	ca-
[8B	-fe
8B]	_
8A	where
4r	.
=34	=34
4G	we
4A	would
4G	dance
8F#	at
[8E	night
=35	=35
4E]	_
4r	.
2r	.
=36	=36
4r	.
8r	.
8D	And
8F#	I
4G	can't
[8A	help
=37	=37
8A]	_
8r	.
8F#	re-
[8A	-call
8A]	_
4B	ing
8r	.
=38	=38
8c	how
4c	it
[8B	felt
4B]	_
8D	_
8G	to
=39	=39
4D	kiss
8r	.
8D	and
4G	hold
8A	you
8Bq	_
[8c	tight!
=40	=40
8c]	_
8B	_
8r	_
8G	Oh,
4B	how
4c#	can
=41	=41
2d	I
4r	.
8r	.
8c#	for-
=42	=42
8dq	_
4e	-get
4d	you,
2A	girl?
=43	=43
4r	_
8r	.
8A	When
4d	there
4e	is
=44	=44
4f#	al-
4f#	-ways
4g	some-
8f#	-thing
[8e	there
=45	=45
8e]	_
4f#	to
8g	re-
8eq	_
4f#	-mind
8e	me?
[8d	_
=46	=46
4d]	_
4r	_
2r	.
=47	=47
1r	.
=48	=48
4f#	Al-
4f#	-ways
4g	some-
8a	-thing
8f#q	_
[8e	there
=49	=49
4e]	_
8d	to
8B	re-
8e#q	_
4f#	-mind
8e#q	_
[4f#	me!
=50	=50
4.f#]	_
8r	_
4r	.
=51	=51
4r	.
8r	.
8f	I
4e	_
4d	was
=52	=52
2.c#	born
8c#	to
8d	_
=53	=53
4B	love
[4F#	her,
2F#]	_
=54	=54
4r	_
8r	.
8F#	and
4B	I
4d	will
=55	=55
8e#q	_
[2f#	ne
8f#]	_
8g	ver
4f#	be
=56	=56
4e	free,
8r	_
8A	you'll
8B	al-
8d	-ways
8d	be
8d	a
=57	=57
8dq	_
4.e	part
[8d	of
8d]	_
4.d	me
=58	=58
4r	.
8r	.
8D	Whoa,
8E	_
8F#	_
8E	whoa,
8D	_
=59	=59
8E	whoa
[4.F#	_
4F#]	_
4r	.
=60	=60
1r	.
=61	=61
1r	.
=62	=62
1r	.
=63	=63
1r	.
=64	=64
1r	.
=65	=65
1r	.
=66	=66
1r	.
=67	=67
1r	.
=68	=68
1r	.
=69	=69
1r	.
=70	=70
1r	.
=71	=71
1r	.
=72	=72
1r	.
=73	=73
1r	.
=74	=74
4r	.
8r	.
8D	If
8F#	you
4G	should
8G	find
=75	=75
4A	_
8F#	you
[8A	miss
8A]	_
4B	the
8Bq	_
[8c	sweet
=76	=76
8c]	_
4c	and
[8B	ten
8B]	_
4A	der
[8G	love
=77	=77
8G]	_
4A	we
[8G	used
8G]	_
4F#	to
[8E	share,
=78	=78
2E]	_
2r	_
=79	=79
4r	.
8r	.
8D	just
8F#	go
4G	back
[8A	to
=80	=80
8A]	_
4F#	the
[8A	pla
8A]	_
4B	ces
8r	.
=81	=81
4c	where
8c	we
[8B	used
8B]	_
4A	to
[8G	go,
=82	=82
4G]	_
8r	_
8D	and
4G	I'll
8A	be
8Bq	_
[8c	there
=83	=83
8c]	_
8B	_
8r	.
8G	Oh,
4B	how
4c#	can
=84	=84
2d	I
4r	.
8r	.
8c#	for-
=85	=85
8dq	_
4e	-get
4d	you,
2A	girl?
=86	=86
4r	_
8r	.
8A	When
4d	there
4e	is
=87	=87
4f#	al-
4f#	-ways
4g	some-
8f#	-thing
[8e	there
=88	=88
8e]	_
4f#	to
8g	re-
8eq	_
4f#	-mind
8e	me?
[8d	_
=89	=89
4d]	_
4r	_
2r	.
=90	=90
1r	.
=91	=91
4f#	Al-
4f#	-ways
4g	some-
8a	-thing
8f#q	_
[8e	there
=92	=92
4e]	_
8d	to
8B	re-
8e#q	_
4f#	-mind
8e#q	_
[4f#	me
=93	=93
2f#]	_
2r	.
=94	=94
4r	.
8r	.
8f	I
4e	_
4d	was
=95	=95
2.c#	born
8c#	to
8d	_
=96	=96
4B	love
[4F#	her
2F#]	_
=97	=97
4r	.
8r	.
8F#	And
4B	I
4d	will
=98	=98
8e#q	_
[2f#	ne
8f#]	_
8g	ver
4f#	be
=99	=99
4e	free,
8r	_
8A	you'll
8B	al-
8d	-ways
8d	be
8d	a
=100	=100
8dq	_
4.e	part
[8d	of
8d]	_
4.d	me!
=101	=101
4r	_
8r	.
8A	Cuz
4d	there
4e	is
=102	=102
4f#	al-
4f#	-ways
4g	some-
8f#	-thing
[8e	there
=103	=103
8e]	_
4f#	to
8g	re-
8eq	_
4f#	-mind
8e	me!
[8d	_
=104	=104
4d]	_
4r	_
2r	.
=105	=105
1r	.
=106	=106
4f#	Al-
4f#	-ways
4g	some-
8f#	-thing
[8e	there
=107	=107
8e]	_
4f#	to
8g	re-
8eq	_
4f#	-mind
8e	me!
[8d	_
=108	=108
4d]	_
4r	_
2r	.
=109	=109
1r	.
=110	=110
4f#	Al-
4f#	-ways
4g	some-
8a	-thing
8f#q	_
[8e	there
=111	=111
4e]	_
8d	_
8B	re-
8e#q	_
4f#	-mind
8e#q	_
[4f#	me
=112	=112
2f#]	_
2r	.
=113	=113
1r	.
=114	=114
4f#	Al-
4f#	-ways
4g	some-
8a	-thing
8f#q	_
[8e	there
=115	=115
4e]	_
8d	_
8B	re-
8e#q	_
4f#	-mind
8e#q	_
[4f#	me
=116	=116
2f#]	_
2r	.
=117	=117
1r	.
=118	=118
4f#	Al-
4f#	-ways
4g	some-
8f#	-thing
[8e	there
=119	=119
8e]	_
4f#	to
8g	re-
8eq	_
4f#	-mind
8e	me!
[8d	_
=120	=120
4d]	_
4r	_
2r	.
=121	=121
1r	.
=122	=122
4f#	Al-
4f#	-ways
4g	some-
8a	-thing
8f#q	_
[8e	there
=123	=123
4e]	_
8d	_
8B	re-
8e#q	_
4f#	-mind
8e#q	_
[4f#	me
=124	=124
2f#]	_
2r	.
=125	=125
1r	.
*-	*-
!!!ENC: Nathaniel Condit-Schultz